media/images/bag.svg

<svg width="19" height="23" viewBox="0 0 19 23" fill="none" xmlns="http://www.w3.org/2000/svg">
<path d="M18.9454 19.8862L18.9447 19.8862L18.9467 19.8941C18.9497 19.9058 18.95 19.9183 18.95 19.938C18.95 21.5921 17.3827 22.95 15.4369 22.95H3.56311C1.61733 22.95 0.05 21.5921 0.05 19.938C0.05 19.9324 0.0507308 19.9262 0.0520162 19.9162L0.0521467 19.9152C0.0532075 19.907 0.0546484 19.8959 0.0548343 19.8841L1.41387 5.0561L1.41388 5.05594C1.44061 4.75385 1.69929 4.52301 2.01456 4.52301H4.81068H4.8599L4.86067 4.47379C4.89906 2.02847 6.96277 0.05 9.5 0.05C12.0372 0.05 14.1009 2.02847 14.1393 4.47379L14.1401 4.52301H14.1893H16.9854C17.2961 4.52301 17.5594 4.75407 17.5861 5.05594L17.5861 5.0561L18.9454 19.8862ZM12.8786 4.52301H12.9297L12.9286 4.47191C12.8892 2.67014 11.3656 1.21994 9.5 1.21994C7.63441 1.21994 6.11083 2.67014 6.07137 4.47191L6.07025 4.52301H6.12136H12.8786ZM1.26089 19.9617L1.26058 19.9617L1.26069 19.9673C1.28084 20.9777 2.31367 21.7801 3.56311 21.7801H15.4369C16.6814 21.7801 17.7192 20.9778 17.7393 19.9673L17.7396 19.9673L17.7391 19.9617L16.4333 5.74308L16.4291 5.69765H16.3835H14.1893H14.1393V5.74765V7.67607C14.1393 7.99974 13.8719 8.26104 13.534 8.26104C13.196 8.26104 12.9286 7.99974 12.9286 7.67607V5.74765V5.69765H12.8786H6.11651H6.0665V5.74765V7.67607C6.0665 7.99974 5.79913 8.26104 5.46117 8.26104C5.1232 8.26104 4.85583 7.99974 4.85583 7.67607V5.74765V5.69765H4.80583H2.61165H2.56602L2.56186 5.74309L1.26089 19.9617Z" fill="white" stroke="#393939" stroke-width="0.1"/>
</svg>

<svg width="19" height="23" fill="none" xmlns="http://www.w3.org/2000/svg"><path d="m18.945 19.886.002.008a.177.177 0 0 1 .003.044c0 1.654-1.567 3.012-3.513 3.012H3.563C1.617 22.95.05 21.592.05 19.938c0-.006 0-.012.002-.022.001-.009.003-.02.003-.032L1.414 5.056a.593.593 0 0 1 .6-.533H4.86v-.05C4.9 2.029 6.964.05 9.5.05c2.537 0 4.6 1.978 4.64 4.424v.049h2.845c.311 0 .574.231.601.533l1.36 14.83zM12.88 4.523h.05v-.051C12.889 2.67 11.366 1.22 9.5 1.22S6.11 2.67 6.071 4.472v.051h6.808zM1.26 19.962v.005c.02 1.01 1.053 1.813 2.302 1.813h11.874c1.244 0 2.282-.802 2.302-1.813v-.005L16.433 5.743l-.004-.045H14.14v1.978a.593.593 0 0 1-.605.585.593.593 0 0 1-.605-.585V5.698H6.067v1.978a.593.593 0 0 1-.606.585.593.593 0 0 1-.605-.585V5.698h-2.29l-.004.045L1.26 19.962z" fill="#fff" stroke="#393939" stroke-width=".1"/></svg>
